dist/img/docs-type/pdf.svg

<svg width="24" height="24" viewBox="0 0 24 24" fill="none" xmlns="http://www.w3.org/2000/svg">
<path fill-rule="evenodd" clip-rule="evenodd" d="M4 20.5H12V22H4C2.89543 22 2 21.1046 2 20V4C2 2.89543 2.89543 2 4 2H12.4773C12.9959 2 13.4942 2.20142 13.8671 2.56178L17.3898 5.96589C17.7798 6.34274 18 6.8618 18 7.40411V8H16.5V7.40411C16.5 7.26854 16.4449 7.13877 16.3474 7.04456L12.8247 3.64045C12.7315 3.55036 12.6069 3.5 12.4773 3.5H4C3.72386 3.5 3.5 3.72386 3.5 4V20C3.5 20.2761 3.72386 20.5 4 20.5ZM6.99439 16L6.99439 18H5.49439L5.49438 10H5.5H6.99438H7H8.25C9.76878 10 11 11.2312 11 12.75V13.25C11 14.7688 9.76878 16 8.25 16H7H6.99439ZM8.25 11.5H7V14.5H8.25C8.94036 14.5 9.5 13.9404 9.5 13.25V12.75C9.5 12.0596 8.94036 11.5 8.25 11.5ZM13.9932 11.5H15.2432C15.9335 11.5 16.4932 12.0596 16.4932 12.75V15.25C16.4932 15.9404 15.9335 16.5 15.2432 16.5H13.9932V11.5ZM12.4932 10H13.9932H15.2432C16.7619 10 17.9932 11.2312 17.9932 12.75V15.25C17.9932 16.7688 16.7619 18 15.2432 18H13.9932H12.4932V16.5V11.5V10ZM19.4861 10.0105H23.9861V11.5105H20.9878V13.5103H23.4861V15.0103H20.9878V18.0117H19.4878V15.0103H19.4861V13.5103H19.4878V11.5105H19.4861V10.0105Z" fill="#141414"/>
</svg>

<svg width="24" height="24" viewBox="0 0 24 24" fill="none" xmlns="http://www.w3.org/2000/svg"><path fill-rule="evenodd" clip-rule="evenodd" d="M4 20.5h8V22H4a2 2 0 01-2-2V4a2 2 0 012-2h8.477a2 2 0 011.39.562l3.523 3.404A2 2 0 0118 7.404V8h-1.5v-.596a.5.5 0 00-.153-.36L12.825 3.64a.5.5 0 00-.348-.14H4a.5.5 0 00-.5.5v16a.5.5 0 00.5.5zM6.994 16v2h-1.5v-8H8.25A2.75 2.75 0 0111 12.75v.5A2.75 2.75 0 018.25 16H6.994zm1.256-4.5H7v3h1.25c.69 0 1.25-.56 1.25-1.25v-.5c0-.69-.56-1.25-1.25-1.25zm5.743 0h1.25c.69 0 1.25.56 1.25 1.25v2.5c0 .69-.56 1.25-1.25 1.25h-1.25v-5zm-1.5-1.5h2.75a2.75 2.75 0 012.75 2.75v2.5a2.75 2.75 0 01-2.75 2.75h-2.75v-8zm6.993.01h4.5v1.5h-2.998v2h2.498v1.5h-2.498v3.002h-1.5V15.01h-.002v-1.5h.002v-2h-.002v-1.5z" fill="#141414"/></svg>
